X: 29649
T: Northern Meeting, The
R: strathspey
M: 4/4
K: Bminor
d|A<DB>D (A<D) F2|A<DB>D A<FF<d|A<DB>D (A<D) F2|A<Fd>c ~B2~B2:|
c|d>ef<b c>de<a|d>ef<b a<f~f>e|d>ef<b c>df<a|f>ed<c ~B2 B<c|
d>ef<b c>de<a|d>ef<b a<f ~f2|(f<b)a>g f>ed>c|B<Fd>c ~B2 B||

